src/64x64/places/folder-gruvbox-original-green-network.svg

<?xml version="1.0" encoding="UTF-8"?>
<svg width="64" height="64" version="1" xmlns="http://www.w3.org/2000/svg">
 <rect x="4" y="22" width="56" height="36" rx="2.8" ry="2.8" opacity=".2"/>
 <path d="m4 46.2c0 1.551 1.2488 2.8 2.8 2.8h50.4c1.551 0 2.8-1.249 2.8-2.8v-30.4c0-1.551-1.249-2.8-2.8-2.8h-25.2c-4.2 0-5.6-6-9.8-6h-15.4c-1.5512 0-2.8 1.2488-2.8 2.8" fill="#79740e"/>
 <rect x="4" y="20" width="56" height="36" rx="2.8" ry="2.8" opacity=".2"/>
 <rect x="8" y="16" width="48" height="22" rx="2.8" ry="2.8" fill="#d7d9ae"/>
 <rect x="4" y="21" width="56" height="36" rx="2.8" ry="2.8" fill="#b8bb26"/>
 <path d="m6.8008 7c-1.5512 0-2.8008 1.2496-2.8008 2.8008v1.0002c0-1.5514 1.2496-2.801 2.8008-2.801h15.398c4.2 0 5.601 6 9.801 6h25.199c1.551 0 2.801 1.25 2.801 2.801v-1c0-1.551-1.25-2.801-2.801-2.801h-25.199c-4.2 0-5.601-6-9.801-6z" fill="#d7d9ae" opacity=".1"/>
 <path d="m32 29c-5.523 0-10 4.477-10 10s4.477 10 10 10 10-4.477 10-10-4.477-10-10-10zm-0.714 2.768c0.095-0.01 0.216 6e-3 0.312 0 0.012 0.046-0.069 0.208-0.178 0.446-0.694 1.517-0.734 3.292-0.09 4.241 0.117 0.172 0.224 0.336 0.224 0.357 0 0.022-0.126 0.045-0.268 0.045-0.334 0-0.65-0.203-1.295-0.714-0.286-0.227-0.659-0.418-0.803-0.447-0.227-0.045-0.288-0.025-0.581 0.268-0.273 0.273-0.357 0.42-0.357 0.67 0 0.947 1.124 1.7 3.214 2.143 2.838 0.601 3.538 1.141 3.616 2.634 0.099 1.871-0.898 3.282-3.08 4.375-0.26 0.13-0.426 0.181-0.536 0.223-0.048-4e-3 -0.085 4e-3 -0.134 0-0.018-0.058-0.044-0.192-0.044-0.446 0-0.994-0.392-2.018-0.982-2.59-0.159-0.153-0.602-0.479-0.982-0.714s-0.763-0.508-0.849-0.625c-0.141-0.194-0.153-0.312-0.044-0.67 0.198-0.652 0.434-1.016 0.893-1.428 0.24-0.216 0.482-0.398 0.535-0.402 0.054-4e-3 -0.307-0.113-0.848-0.223-0.541-0.111-1.332-0.343-1.741-0.491-0.748-0.271-1.758-0.839-2.143-1.25-0.016-0.018-0.03-0.03-0.044-0.045 0.551-2.197 2.099-3.998 4.151-4.866 0.43-0.182 0.872-0.306 1.34-0.402 0.232-0.047 0.474-0.065 0.714-0.089zm6.696 3.348c0.168 0.104 0.801 1.474 0.982 2.143 0.234 0.863 0.217 2.357 0 3.214-0.082 0.327-0.188 0.632-0.223 0.67s-0.163-0.181-0.312-0.446c-0.15-0.266-0.629-0.831-1.027-1.25-1.149-1.213-1.33-1.846-0.848-2.813 0.242-0.488 1.298-1.598 1.428-1.518z" fill="#333e34"/>
</svg>

<svg xmlns="http://www.w3.org/2000/svg" width="64" height="64" version="1">
 <rect style="opacity:0.2" width="56" height="36" x="4" y="22" rx="2.8" ry="2.8"/>
 <path style="fill:#79740e" d="M 4,46.2 C 4,47.751 5.2488,49 6.8,49 H 57.2 C 58.751,49 60,47.751 60,46.2 V 15.8 C 60,14.249 58.751,13 57.2,13 H 32 C 27.8,13 26.4,7 22.2,7 H 6.8 C 5.2488,7 4,8.2488 4,9.8"/>
 <rect style="opacity:0.2" width="56" height="36" x="4" y="20" rx="2.8" ry="2.8"/>
 <rect style="fill:#d7d9ae" width="48" height="22" x="8" y="16" rx="2.8" ry="2.8"/>
 <rect style="fill:#b8bb26" width="56" height="36" x="4" y="21" rx="2.8" ry="2.8"/>
 <path style="opacity:0.1;fill:#d7d9ae" d="M 6.8008,7 C 5.2496,7 4,8.2496 4,9.8008 V 10.801 C 4,9.2496 5.2496,8 6.8008,8 H 22.199 C 26.399,8 27.8,14 32,14 H 57.199 C 58.75,14 60,15.25 60,16.801 V 15.801 C 60,14.25 58.75,13 57.199,13 H 32 C 27.8,13 26.399,7 22.199,7 Z"/>
 <path style="fill:#333e34" d="M 32,29 C 26.477,29 22,33.477 22,39 22,44.523 26.477,49 32,49 37.523,49 42,44.523 42,39 42,33.477 37.523,29 32,29 Z M 31.286,31.768 C 31.381,31.758 31.502,31.774 31.598,31.768 31.61,31.814 31.529,31.976 31.42,32.214 30.726,33.731 30.686,35.506 31.33,36.455 31.447,36.627 31.554,36.791 31.554,36.812 31.554,36.834 31.428,36.857 31.286,36.857 30.952,36.857 30.636,36.654 29.991,36.143 29.705,35.916 29.332,35.725 29.188,35.696 28.961,35.651 28.9,35.671 28.607,35.964 28.334,36.237 28.25,36.384 28.25,36.634 28.25,37.581 29.374,38.334 31.464,38.777 34.302,39.378 35.002,39.918 35.08,41.411 35.179,43.282 34.182,44.693 32,45.786 31.74,45.916 31.574,45.967 31.464,46.009 31.416,46.005 31.379,46.013 31.33,46.009 31.312,45.951 31.286,45.817 31.286,45.563 31.286,44.569 30.894,43.545 30.304,42.973 30.145,42.82 29.702,42.494 29.322,42.259 28.942,42.024 28.559,41.751 28.473,41.634 28.332,41.44 28.32,41.322 28.429,40.964 28.627,40.312 28.863,39.948 29.322,39.536 29.562,39.32 29.804,39.138 29.857,39.134 29.911,39.13 29.55,39.021 29.009,38.911 28.468,38.8 27.677,38.568 27.268,38.42 26.52,38.149 25.51,37.581 25.125,37.17 25.109,37.152 25.095,37.14 25.081,37.125 25.632,34.928 27.18,33.127 29.232,32.259 29.662,32.077 30.104,31.953 30.572,31.857 30.804,31.81 31.046,31.792 31.286,31.768 Z M 37.982,35.116 C 38.15,35.22 38.783,36.59 38.964,37.259 39.198,38.122 39.181,39.616 38.964,40.473 38.882,40.8 38.776,41.105 38.741,41.143 38.706,41.181 38.578,40.962 38.429,40.697 38.279,40.431 37.8,39.866 37.402,39.447 36.253,38.234 36.072,37.601 36.554,36.634 36.796,36.146 37.852,35.036 37.982,35.116 Z"/>
</svg>
